X:1
T:[ID 2-63a]
T:[ID 2-63a]
T:Bezeichnung standardisiert: Polonaise Polonoise
T:Urheber unbekannt Datum in der hier transkribierten schriftlichen Quelle: 1767
C:Urheber unbekannt
C:Datum in der hier transkribierten schriftlichen Quelle: 1767
L:1/8
M:3/4
K:G
V:1 treble 
V:1
 G/A/B/c/ dddd | d/e/f/g/ ac{c} B2 | B>G .c.A.d.B | e/d/c/B/ B2 A2 ::"^O)" d>B c>A B2 | %5
{c} BA/G/ AG/F/ G2 |"^O)" d>B c>A B2 |{c} BA/G/ AG/F/ G2 | G/A/B/G/ .c.A .d.B | e/c/A/F/ G2 G,2 :| %10

